src/components/Icon/assets/arrow-hook-left-down.svg

<svg width="24" height="24" viewBox="0 0 24 24" fill="none" xmlns="http://www.w3.org/2000/svg">
<path fill-rule="evenodd" clip-rule="evenodd" d="M14.5002 3.02649H10.0002V5.02649H14.5002C16.9812 5.02649 19.0002 7.04549 19.0002 9.52649C19.0002 12.0075 16.9812 14.0265 14.5002 14.0265H5.18118L9.18018 10.0265L7.76618 8.61249L2.43918 13.9395C1.85418 14.5245 1.85418 15.4755 2.43918 16.0605L7.76618 21.3875L9.18018 19.9735L5.23318 16.0265H14.5002C18.0842 16.0265 21.0002 13.1105 21.0002 9.52649C21.0002 5.94249 18.0842 3.02649 14.5002 3.02649" fill="#65676A"/>
</svg>

<svg xmlns="http://www.w3.org/2000/svg" width="24" height="24" viewBox="0 0 24 24">
    <path fill="#65676A" fill-rule="evenodd" d="M14.5 3.026H10v2h4.5c2.481 0 4.5 2.02 4.5 4.5 0 2.482-2.019 4.5-4.5 4.5H5.181l4-4-1.415-1.413L2.44 13.94c-.585.585-.585 1.536 0 2.12l5.327 5.328 1.414-1.415-3.947-3.947H14.5c3.584 0 6.5-2.915 6.5-6.5 0-3.583-2.916-6.5-6.5-6.5"/>
</svg>
